tools/download-figma-icons/icons/outlined-large/solar-panel-stand.svg

<svg width="64" height="64" viewBox="0 0 64 64" fill="none" xmlns="http://www.w3.org/2000/svg">
<path fill-rule="evenodd" clip-rule="evenodd" d="M56.3194 23.9999H42.2454L46.5814 11H60.4494L56.3194 23.9999ZM51.2354 39.9998H36.9084L41.2444 26.9999H55.3664L51.2354 39.9998ZM28.0005 52.9998H31.0005V42.9998H28.0005V52.9998ZM7.68056 26.9999H21.0825L16.7465 39.9998H3.55057L7.68056 26.9999ZM12.7645 11H26.4195L22.0835 23.9999H8.63355L12.7645 11ZM25.2455 23.9999L29.5815 11H43.4194L39.0834 23.9999H25.2455ZM19.9085 39.9998L24.2445 26.9999H38.0824L33.7465 39.9998H19.9085ZM63.7113 8.61397C63.4273 8.22897 62.9783 7.99997 62.5003 7.99997H11.6675C11.0135 7.99997 10.4355 8.42297 10.2375 9.04597L0.0705862 41.0458C-0.0744132 41.5018 0.0065865 41.9988 0.289585 42.3858C0.572584 42.7708 1.02158 42.9998 1.50058 42.9998H17.7895C17.8005 42.9998 17.8135 43.0058 17.8255 43.0058C17.8385 43.0058 17.8495 42.9998 17.8625 42.9998H25.0005V52.9998H19.5145C18.6865 52.9998 18.0145 53.6718 18.0145 54.4998C18.0145 55.3278 18.6865 55.9998 19.5145 55.9998H39.4904C40.3184 55.9998 40.9904 55.3278 40.9904 54.4998C40.9904 53.6718 40.3184 52.9998 39.4904 52.9998H34.0005V42.9998H34.7895C34.8005 42.9998 34.8135 43.0058 34.8255 43.0058C34.8385 43.0058 34.8495 42.9998 34.8625 42.9998H52.3334C52.9864 42.9998 53.5644 42.5768 53.7624 41.9538L58.7124 26.3769C58.8914 26.1299 59.0004 25.8289 59.0004 25.4999C59.0004 25.4919 58.9984 25.4849 58.9984 25.4779L63.9293 9.95396C64.0743 9.49796 63.9933 9.00097 63.7113 8.61397Z" fill="black"/>
</svg>

<svg xmlns="http://www.w3.org/2000/svg" width="64" height="64" fill="none" viewBox="0 0 64 64"><path fill="currentColor" fill-rule="evenodd" d="M56.32 24H42.244l4.336-13h13.87zm-5.085 16H36.908l4.336-13h14.122zM28.001 53h3V43h-3zM7.68 27h13.401l-4.335 13H3.55zm5.084-16h13.654l-4.335 13H8.634zm12.48 13 4.336-13h13.84l-4.336 13zm-5.337 16 4.336-13h13.838l-4.336 13zM63.712 8.614A1.5 1.5 0 0 0 62.501 8H11.667a1.5 1.5 0 0 0-1.43 1.046l-10.167 32A1.5 1.5 0 0 0 1.5 43h16.29c.01 0 .024.006.036.006s.023-.006.037-.006H25v10h-5.485a1.5 1.5 0 0 0 0 3H39.49a1.5 1.5 0 0 0 0-3H34V43h.79c.01 0 .023.006.035.006.014 0 .024-.006.037-.006h17.471a1.5 1.5 0 0 0 1.43-1.046l4.95-15.577c.178-.247.287-.548.287-.877l-.002-.022L63.93 9.954a1.5 1.5 0 0 0-.218-1.34" clip-rule="evenodd"/></svg>
